X:1
T:Minuet in G Minor
T:Notebooks for Anna Magdalena Bach BWV Anhang 115
T:Christian Petzold 
T:Public Domain (PianoXML typeset)
C:Christian Petzold
Z:Public Domain (PianoXML typeset)
%%score { 1 | 2 }
L:1/8
M:3/4
K:Bb
V:1 treble nm="Piano"
V:2 bass 
V:1
!mf! (!4!b2 a2 g2 | a2) .d2 .d2 | !5!g2 (GABc | d6) | !3!e2 (!4!fedc | d2) (ed!1!c!2!B | %6
 !3!c2) (!4!dcBc | PA6) |!p! (!4!b2 Pa2 g2 | a2) .d2 .d2 | !5!g2 GABc | d6 | Mf2 (!4!gfed | %13
 e2) (!4!fedc | d2) g2 Pc2 | [DFB]6 ::!f! !4!d2 !2!B!1!cd=e | f2 g2 a2 | b2 (!2!gabg | %19
 a2) (!2!ga f2) |!<(! (FGABcd | e2)!<)! d2 c2 |!>(! f2 B2 A2 | B6!>)! |!p! G2 (!4!dc d2) | %25
 G2 (!4!ed e2) | (!1!G!5!d !2!^F!5!c !1!G!3!B | A4) z2 | (!1!D=E^F!1!GAB | c2) B2 A2 | %30
 (PBc/d/ G2) ^F2 | [B,DG]6 :| %32
V:2
 (G,6 | F,6 | E,6 | D,2) (DCB,A, | [G,B,]4) (A,2 | B,4) (G,2 | A,2) ^F,2 G,2 | D,2 (DCB,A, | G,6 | %9
 F,6 | E,6 | D,2) (DC=B,A, | [=B,D]4) (G,2 | C2) A,2 F,2 | B,2 E,2 [F,A,]2 | B,2 B,,4 :: (B,6 | %17
 A,2) G,2 F,2 | G,2 =E,2 C,2 | F,4 z2 | A,2 G,2 F,2 | G,2 F,2 E,2 | D,2 E,2 F,2 | B,,2 (D2 C2 | %24
 [=B,D]6 | C6 | B,2 A,2 G,2 | D2) (A,G,^F,=E, | D,4) z2 | _E,2 D,2 C,2 | (B,,2 C,2) D,2 | %31
 G,2 !fermata!G,,4 :| %32

